icons/links-fill.svg

<svg viewBox="0 0 24 24" fill="currentColor" xmlns="http://www.w3.org/2000/svg">
    <path d="M13.0607 8.11097L14.4749 9.52518C17.2086 12.2589 17.2086 16.691 14.4749 19.4247L14.1214 19.7782C11.3877 22.5119 6.95555 22.5119 4.22188 19.7782C1.48821 17.0446 1.48821 12.6124 4.22188 9.87874L5.6361 11.293C3.68348 13.2456 3.68348 16.4114 5.6361 18.364C7.58872 20.3166 10.7545 20.3166 12.7072 18.364L13.0607 18.0105C15.0133 16.0578 15.0133 12.892 13.0607 10.9394L11.6465 9.52518L13.0607 8.11097ZM19.7782 14.1214L18.364 12.7072C20.3166 10.7545 20.3166 7.58872 18.364 5.6361C16.4114 3.68348 13.2456 3.68348 11.293 5.6361L10.9394 5.98965C8.98678 7.94227 8.98678 11.1081 10.9394 13.0607L12.3536 14.4749L10.9394 15.8891L9.52518 14.4749C6.79151 11.7413 6.79151 7.30911 9.52518 4.57544L9.87874 4.22188C12.6124 1.48821 17.0446 1.48821 19.7782 4.22188C22.5119 6.95555 22.5119 11.3877 19.7782 14.1214Z"/>
</svg>

<svg xmlns="http://www.w3.org/2000/svg" viewBox="0 0 24 24">
    <g>
        <path fill="none" d="M0 0h24v24H0z"/>
        <path d="M13.06 8.11l1.415 1.415a7 7 0 0 1 0 9.9l-.354.353a7 7 0 0 1-9.9-9.9l1.415 1.415a5 5 0 1 0 7.071 7.071l.354-.354a5 5 0 0 0 0-7.07l-1.415-1.415 1.415-1.414zm6.718 6.011l-1.414-1.414a5 5 0 1 0-7.071-7.071l-.354.354a5 5 0 0 0 0 7.07l1.415 1.415-1.415 1.414-1.414-1.414a7 7 0 0 1 0-9.9l.354-.353a7 7 0 0 1 9.9 9.9z"/>
    </g>
</svg>
